dist/assets/images/contenu_edit.svg

<?xml version="1.0"?><svg fill="#000000" xmlns="http://www.w3.org/2000/svg"  viewBox="0 0 24 24" width="24px" height="24px">    <path d="M 18.414062 2 C 18.158062 2 17.902031 2.0979687 17.707031 2.2929688 L 15.707031 4.2929688 L 14.292969 5.7070312 L 3 17 L 3 21 L 7 21 L 21.707031 6.2929688 C 22.098031 5.9019687 22.098031 5.2689063 21.707031 4.8789062 L 19.121094 2.2929688 C 18.926094 2.0979687 18.670063 2 18.414062 2 z M 18.414062 4.4140625 L 19.585938 5.5859375 L 18.292969 6.8789062 L 17.121094 5.7070312 L 18.414062 4.4140625 z M 15.707031 7.1210938 L 16.878906 8.2929688 L 6.171875 19 L 5 19 L 5 17.828125 L 15.707031 7.1210938 z"/></svg>

<svg xmlns="http://www.w3.org/2000/svg" width="24" height="24"><path d="M18.414 2a.997.997 0 00-.707.293l-2 2-1.414 1.414L3 17v4h4L21.707 6.293a.999.999 0 000-1.414l-2.586-2.586A.997.997 0 0018.414 2zm0 2.414l1.172 1.172-1.293 1.293-1.172-1.172 1.293-1.293zm-2.707 2.707l1.172 1.172L6.172 19H5v-1.172L15.707 7.121z"/></svg>
